!!!OTL: Die heilige Familie auf der Flucht nach Egypten. / (Kindelwiegenlied des 15. Jahrh.)
!!!ARE: Europa, Mitteleuropa, Deutschland
!!!SCT: A0523
!!!TXL: @@GMH
!!!YEM: Copyright 1995, estate of Helmut Schaffrath.
**kern	**text
*M3/2	*
*met(C|3)	*
*clefC3	*
*k[b-]	*
*C:mix	*
!LO:TX:a:t=mixolyd. tr.	!
!LO:TX:a:t=P:2r, 2r in the source:problem	!
!LO:N:vis=1	!
{2c	Als
=1	=1
!LO:N:vis=0	!
1c	Je-
!LO:N:vis=1	!
2c	-ſus
=2	=2
!LO:TX:a:t=..	!
!LO:N:vis=0	!
1c	Chriſt
!LO:N:vis=1	!
2d	ge-
=3	=3
!LO:N:vis=0	!
1f	-bo-
!LO:N:vis=1	!
2f	ren
=4	=4
!LO:N:vis=0	!
1g}	ward,
!LO:N:vis=1	!
{2f	da
=5	=5
!LO:N:vis=0	!
1e	war
!LO:N:vis=1	!
2d	es
=6	=6
!LO:N:vis=0	!
1e}	kalt,}
{2c	Er
=7	=7
!LO:N:vis=0	!
1c	ward
!LO:N:vis=1	!
2c	ge-
=8	=8
!LO:TX:a:t=..	!
!LO:N:vis=0	!
1c	-wickelt
!LO:N:vis=1	!
2d	in
=9	=9
!LO:N:vis=0	!
1f	Tü-
!LO:N:vis=1	!
2f	-che-
=10	=10
!LO:N:vis=0	!
1g}	-lein
!LO:N:vis=1	!
{2f	in
=11	=11
!LO:N:vis=0	!
1e	ei-
!LO:N:vis=1	!
2d	-nem
=12	=12
!LO:N:vis=0	!
1e}	Stall,}
!LO:N:vis=1	!
{2c	Vnd
=13	=13
!LO:N:vis=0	!
1c	für
!LO:N:vis=1	!
2d	ein
=14	=14
*lig	*
!LO:N:vis=1	!
2e	E-
!LO:N:vis=1	!
2e	-ſel
*Xlig	*
!LO:N:vis=1	!
2f	vnd
=15	=15
!LO:N:vis=0	!
1g	für
!LO:N:vis=1	!
2g	ein
=16	=16
!LO:N:vis=0	!
1e}	Kind
!LO:N:vis=1	!
{2g	da
=17	=17
!LO:N:vis=0	!
1f	ward
!LO:N:vis=1	!
2e	ge-
=18	=18
!LO:N:vis=0	!
1d	-legt
!LO:N:vis=1	!
2c	Ma-
=19	=19
!LO:N:vis=0	!
1e	-ri-
!LO:N:vis=1	!
2d	-a
=20	=20
!LO:N:vis=0	!
1c}	Kind,
!LO:N:vis=1	!
{2e	Je-
=21	=21
!LO:N:vis=0	!
1f	-ſus
!LO:N:vis=1	!
2e-i	der
=22	=22
*lig	*
!LO:N:vis=1	!
2d	Her-
!LO:N:vis=0	!
1c	.
*Xlig	*
=23	=23
!LO:N:vis=0.	!
1.B-	-re,
=24	=24
!LO:N:vis=1	!
2r	.
!LO:N:vis=1	!
2r}	.
!LO:N:vis=1	!
{2G	Vnd
=25	=25
!LO:N:vis=0	!
1B-	wer
!LO:N:vis=1	!
2B-	dem
=26	=26
1c	dient
!LO:N:vis=1	!
2c	auf
=27	=27
!LO:N:vis=0	!
1e-	di-
!LO:N:vis=1	!
2e-	-ſer
=28	=28
!LO:N:vis=0	!
1d}	Erd,
!LO:N:vis=1	!
{2g	dem
=29	=29
!LO:N:vis=0	!
1f	loh-
!LO:N:vis=1	!
2e	-net
=30	=30
!LO:N:vis=0	!
1d	Gott
!LO:N:vis=1	!
2c	der
=31	=31
!LO:N:vis=0.	!
1.d	Her-
=32	=32
1c\ll}	-re.
==	==
!!!GTL: Geistliche Volkslieder
!!!AGN: Romanze, Ballade, Lied, religioeses Lied
!! H. von Themar, Schoene christenliche Catholische Weinacht...
!!    Augspurg 1590 No. 4.
!!!ONB: ESAC (Essen Associative Code) Database: ALTDEU
!!!AMT: simple triple
!!!AIN: vox
!!!EED: Helmut Schaffrath
!!!EEV: 1.0
!!!RDF**kern: i = editorial accidental
!!!RDF**kern: l = terminal long
!!!AMD: Mixolydian
!!!URL-scan: https://rosdok.uni-rostock.de/mcrviewer/recordIdentifier/rosdok_ppn738218359/iview2/phys_0700.iview2?x=-1272.8135649766991&y=1763.641255822964&scale=0.3197610882076923&rotation=0&layout=singlePageLayout&logicalDiv=log_0018
!!!ENC: Anna Maria Matuszewska
!!!EEV: 2024/19/03
*-	*-
